packages/katcn/src/icons/svg/cup-solid.svg

<svg width="24" height="25" viewBox="0 0 24 25" fill="none" xmlns="http://www.w3.org/2000/svg">
<path d="M16.1791 2.20801H7.8209C6.25373 2.20801 5 3.42013 5 4.83427V10.5918C5 13.9252 7.61194 16.7535 10.9552 17.2585V20.1878H7.8209C7.19403 20.1878 6.77612 20.5918 6.77612 21.1979C6.77612 21.804 7.19403 22.208 7.8209 22.208H16.1791C16.806 22.208 17.2239 21.804 17.2239 21.1979C17.2239 20.5918 16.806 20.1878 16.1791 20.1878H13.0448V17.2585C16.3881 16.7535 19 14.0262 19 10.5918V4.83427C19 3.42013 17.7463 2.20801 16.1791 2.20801Z" fill="black"/>
<path d="M3 4.20801C2.4 4.20801 2 4.57164 2 5.1171V10.2989C2 10.8444 2.4 11.208 3 11.208C3.6 11.208 4 10.8444 4 10.2989V5.1171C4 4.66255 3.6 4.20801 3 4.20801Z" fill="black"/>
<path d="M21 4.20801C20.4 4.20801 20 4.57164 20 5.1171V10.2989C20 10.8444 20.4 11.208 21 11.208C21.6 11.208 22 10.8444 22 10.2989V5.1171C22 4.66255 21.6 4.20801 21 4.20801Z" fill="black"/>
</svg>

<svg xmlns="http://www.w3.org/2000/svg" fill="none" viewBox="0 0 24 25"><path fill="#000" d="M16.18 2.208H7.82C6.255 2.208 5 3.42 5 4.834v5.758c0 3.333 2.612 6.161 5.955 6.667v2.929H7.821c-.627 0-1.045.404-1.045 1.01s.418 1.01 1.045 1.01h8.358c.627 0 1.045-.404 1.045-1.01s-.418-1.01-1.045-1.01h-3.134v-2.93C16.388 16.754 19 14.027 19 10.593V4.834c0-1.414-1.254-2.626-2.82-2.626M3 4.208c-.6 0-1 .364-1 .91v5.18c0 .546.4.91 1 .91s1-.364 1-.91v-5.18c0-.455-.4-.91-1-.91m18 0c-.6 0-1 .364-1 .91v5.18c0 .546.4.91 1 .91s1-.364 1-.91v-5.18c0-.455-.4-.91-1-.91"/></svg>
